docs-src/static/files/icons/flutter.svg

<svg xmlns="http://www.w3.org/2000/svg" viewBox="0 0 166 202"><defs><linearGradient id="b"><stop offset="20%" stop-opacity=".55"/><stop offset="85%" stop-color="#616161" stop-opacity=".01"/></linearGradient><linearGradient id="a" x1="0%" x2="0%" y1="0%" y2="100%"><stop offset="20%" stop-opacity=".15"/><stop offset="85%" stop-color="#616161" stop-opacity=".01"/></linearGradient></defs><path fill="#42A5F5" fill-opacity=".8" d="M37.7 128.9 9.8 101l90.6-90.6h55.8M156.2 94h-55.8l-20.9 20.9 27.9 27.9"/><path fill="#0D47A1" d="m79.5 170.7 20.9 20.9h55.8l-48.8-48.8"/><path fill="#42A5F5" d="m51.662 142.816 27.86-27.86 27.86 27.86-27.86 27.86z"/><path fill="url(#a)" d="M59.8 162.5h39.4v5.5H59.8z" transform="rotate(-45.001 79.53 142.782)"/><path fill="url(#b)" d="m79.5 170.7 41.4-14.3-13.5-13.6"/></svg>

<svg xmlns="http://www.w3.org/2000/svg" version="1.1" viewBox="0 0 166 202">
    <defs>
        <linearGradient id="triangleGradient">
            <stop offset="20%" stop-color="#000000" stop-opacity=".55" />
            <stop offset="85%" stop-color="#616161" stop-opacity=".01" />
        </linearGradient>
        <linearGradient id="rectangleGradient" x1="0%" x2="0%" y1="0%" y2="100%">
            <stop offset="20%" stop-color="#000000" stop-opacity=".15" />
            <stop offset="85%" stop-color="#616161" stop-opacity=".01" />
        </linearGradient>
    </defs>
    <path fill="#42A5F5" fill-opacity=".8" d="M37.7 128.9 9.8 101 100.4 10.4 156.2 10.4"/>
    <path fill="#42A5F5" fill-opacity=".8" d="M156.2 94 100.4 94 79.5 114.9 107.4 142.8"/>
    <path fill="#0D47A1" d="M79.5 170.7 100.4 191.6 156.2 191.6 156.2 191.6 107.4 142.8"/>
    <g transform="matrix(0.7071, -0.7071, 0.7071, 0.7071, -77.667, 98.057)">
        <rect width="39.4" height="39.4" x="59.8" y="123.1" fill="#42A5F5" />
        <rect width="39.4" height="5.5" x="59.8" y="162.5" fill="url(#rectangleGradient)" />
    </g>
    <path d="M79.5 170.7 120.9 156.4 107.4 142.8" fill="url(#triangleGradient)" />
</svg>
